;FLAVOR:Marlin
;TIME:27155
;Filament used: 20.8027m
;Layer height: 0.2
;MINX:9.343
;MINY:77.7
;MINZ:0.2
;MAXX:210.657
;MAXY:143.158
;MAXZ:32
;Generated with Cura_SteamEngine 4.7.1
M140 S60
M105
M190 S60
M104 S200
M105
M109 S200
M82 ;absolute extrusion mode
; Ender 3 Custom Start G-code
G92 E0 ; Reset Extruder
G28 ; Home all axes
G1 Z2.0 F3000 ; Move Z Axis up little to prevent scratching of Heat Bed
G1 X0.1 Y20 Z0.3 F5000.0 ; Move to start position
G1 X0.1 Y200.0 Z0.3 F1500.0 E15 ; Draw the first line
G1 X0.4 Y200.0 Z0.3 F5000.0 ; Move to side a little
G1 X0.4 Y20 Z0.3 F1500.0 E30 ; Draw the second line
G92 E0 ; Reset Extruder
G1 Z2.0 F3000 ; Move Z Axis up little to prevent scratching of Heat Bed
G1 X5 Y20 Z0.3 F5000.0 ; Move over to prevent blob squish
G92 E0
G92 E0
G1 F1500 E-6.5
;LAYER_COUNT:160
;LAYER:0
M107
G0 F6000 X26.785 Y85.06 Z0.2
;TYPE:SKIRT
G1 F1500 E0
G1 F1200 X27.693 Y84.826 E0.03119
G1 X28.617 Y84.669 E0.06236
G1 X29.819 Y84.585 E0.10244
G1 X30.548 Y84.574 E0.12669
G1 X94.965 Y84.572 E2.2692
G1 X160.233 Y84.573 E4.44003
G1 X189.464 Y84.574 E5.41225
G1 X190.173 Y84.585 E5.43584
G1 X191.109 Y84.64 E5.46702
G1 X192.037 Y84.774 E5.49821
G1 X192.951 Y84.987 E5.52942
G1 X193.751 Y85.243 E5.55736
G1 X194.002 Y85.334 E5.56624
G1 X194.87 Y85.691 E5.59746
G1 X195.703 Y86.12 E5.62862
G1 X196.497 Y86.619 E5.65981
G1 X197.246 Y87.184 E5.69102
G1 X197.944 Y87.811 E5.72222
G1 X198.659 Y88.579 E5.75712
G1 X198.789 Y88.733 E5.76383
G1 X199.362 Y89.475 E5.79501
G1 X199.871 Y90.263 E5.82621
G1 X200.311 Y91.092 E5.85742
G1 X200.819 Y92.35 E5.90255
G1 X200.856 Y92.461 E5.90644
G1 X201.114 Y93.363 E5.93764
G1 X201.295 Y94.283 E5.96883
G1 X201.396 Y95.216 E6.00004
G1 X201.418 Y95.714 E6.01662
G1 X201.426 Y96.103 E6.02956
G1 X201.428 Y96.329 E6.03708
G1 X201.427 Y123.397 E6.93736
G1 X201.423 Y123.699 E6.94741
G1 X201.421 Y124.078 E6.96002
G1 X201.377 Y125.015 E6.99121
G1 X201.253 Y125.944 E7.02239
G1 X201.05 Y126.86 E7.05359
G1 X200.771 Y127.755 E7.08477
G1 X200.416 Y128.623 E7.11596
G1 X199.976 Y129.479 E7.14798
G1 X199.81 Y129.77 E7.15912
G1 X199.311 Y130.565 E7.19034
G1 X198.746 Y131.313 E7.22152
G1 X198.119 Y132.011 E7.25272
G1 X197.436 Y132.653 E7.2839
G1 X196.7 Y133.234 E7.31509
G1 X195.917 Y133.751 E7.34629
G1 X195.093 Y134.199 E7.37749
G1 X194.34 Y134.533 E7.40489
G1 X194.1 Y134.629 E7.41349
G1 X193.215 Y134.94 E7.44469
G1 X192.307 Y135.174 E7.47587
G1 X191.383 Y135.331 E7.50705
G1 X190.181 Y135.415 E7.54712
G1 X189.452 Y135.426 E7.57137
G1 X125.035 Y135.428 E9.71389
G1 X59.767 Y135.427 E11.88471
G1 X30.536 Y135.426 E12.85694
G1 X29.827 Y135.415 E12.88052
G1 X28.891 Y135.36 E12.91171
G1 X27.963 Y135.226 E12.94289
G1 X27.049 Y135.013 E12.97411
G1 X26.249 Y134.757 E13.00204
G1 X25.998 Y134.666 E13.01092
G1 X25.13 Y134.309 E13.04214
G1 X24.297 Y133.88 E13.07331
G1 X23.503 Y133.381 E13.1045
G1 X22.754 Y132.816 E13.1357
G1 X22.056 Y132.189 E13.16691
G1 X21.319 Y131.394 E13.20296
G1 X21.189 Y131.239 E13.20969
G1 X20.617 Y130.495 E13.24091
G1 X20.111 Y129.705 E13.27211
G1 X19.674 Y128.876 E13.30328
G1 X19.172 Y127.621 E13.34823
G1 X19.135 Y127.509 E13.35216
G1 X18.879 Y126.606 E13.38338
G1 X18.701 Y125.685 E13.41457
G1 X18.602 Y124.753 E13.44575
G1 X18.582 Y124.277 E13.46159
G1 X18.574 Y123.875 E13.47497
G1 X18.572 Y123.656 E13.48225
G1 X18.573 Y96.59 E14.38247
G1 X18.577 Y96.268 E14.39318
G1 X18.579 Y95.922 E14.40469
G1 X18.623 Y94.985 E14.43589
G1 X18.747 Y94.056 E14.46706
G1 X18.95 Y93.14 E14.49827
G1 X19.229 Y92.245 E14.52945
G1 X19.584 Y91.377 E14.56064
G1 X20.024 Y90.521 E14.59265
G1 X20.19 Y90.23 E14.60379
G1 X20.689 Y89.435 E14.63501
G1 X21.254 Y88.687 E14.66619
G1 X21.881 Y87.989 E14.6974
G1 X22.564 Y87.347 E14.72857
G1 X23.3 Y86.766 E14.75976
G1 X24.083 Y86.249 E14.79097
G1 X24.907 Y85.801 E14.82216
G1 X25.66 Y85.467 E14.84956
G1 X25.9 Y85.371 E14.85816
G1 X26.785 Y85.06 E14.88936
G0 F6000 X26.917 Y85.438
G1 F1200 X27.809 Y85.21 E14.91998
G1 X28.717 Y85.06 E14.95059
G1 X29.825 Y84.985 E14.98753
G1 X30.554 Y84.974 E15.01178
G1 X94.965 Y84.972 E17.15409
G1 X160.233 Y84.973 E19.32492
G1 X189.457 Y84.974 E20.29691
G1 X190.166 Y84.985 E20.32049
G1 X191.085 Y85.04 E20.35112
G1 X191.996 Y85.173 E20.38174
G1 X192.892 Y85.386 E20.41237
G1 X193.615 Y85.619 E20.43763
G1 X193.866 Y85.71 E20.44651
G1 X194.717 Y86.061 E20.47713
G1 X195.534 Y86.484 E20.50773
G1 X196.312 Y86.977 E20.53836
G1 X197.044 Y87.536 E20.569
G1 X197.724 Y88.156 E20.5996
G1 X198.353 Y88.837 E20.63044
G1 X198.483 Y88.991 E20.63714
G1 X199.046 Y89.72 E20.66778
G1 X199.543 Y90.495 E20.6984
G1 X199.971 Y91.31 E20.72902
G1 X200.439 Y92.477 E20.77084
G1 X200.476 Y92.588 E20.77473
G1 X200.729 Y93.473 E20.80534
G1 X200.904 Y94.377 E20.83597
G1 X201.018 Y95.722 E20.88086
G1 X201.026 Y96.111 E20.8938
G1 X201.028 Y96.329 E20.90105
G1 X201.027 Y123.397 E21.80134
G1 X201.023 Y123.656 E21.80995
G1 X201.021 Y124.076 E21.82392
G1 X200.977 Y124.996 E21.85456
G1 X200.853 Y125.908 E21.88517
G1 X200.651 Y126.806 E21.91578
G1 X200.371 Y127.683 E21.9464
G1 X200.017 Y128.533 E21.97703
G1 X199.628 Y129.281 E22.00507
G1 X199.462 Y129.572 E22.01621
G1 X198.972 Y130.351 E22.04682
G1 X198.416 Y131.085 E22.07745
G1 X197.798 Y131.768 E22.10809
G1 X197.123 Y132.394 E22.1387
G1 X196.397 Y132.96 E22.16932
G1 X195.624 Y133.46 E22.19994
G1 X194.81 Y133.891 E22.23058
G1 X194.192 Y134.162 E22.25302
G1 X193.952 Y134.258 E22.26162
G1 X193.083 Y134.562 E22.29224
G1 X192.191 Y134.79 E22.32286
G1 X191.283 Y134.94 E22.35347
G1 X190.175 Y135.015 E22.39041
G1 X189.446 Y135.026 E22.41466
G1 X125.035 Y135.028 E24.55697
G1 X59.767 Y135.027 E26.7278
G1 X30.543 Y135.026 E27.69979
G1 X29.834 Y135.015 E27.72338
G1 X28.915 Y134.96 E27.754
G1 X28.004 Y134.827 E27.78462
G1 X27.108 Y134.614 E27.81525
G1 X26.385 Y134.381 E27.84051
G1 X26.134 Y134.29 E27.84939
G1 X25.283 Y133.939 E27.88001
G1 X24.466 Y133.516 E27.91061
G1 X23.688 Y133.023 E27.94125
G1 X22.956 Y132.464 E27.97188
G1 X22.276 Y131.844 E28.00249
G1 X21.625 Y131.137 E28.03445
G1 X21.495 Y130.982 E28.04118
G1 X20.935 Y130.251 E28.07181
G1 X20.44 Y129.475 E28.10242
G1 X20.014 Y128.659 E28.13304
G1 X19.552 Y127.495 E28.17469
G1 X19.515 Y127.383 E28.17861
G1 X19.264 Y126.497 E28.20924
G1 X19.092 Y125.593 E28.23985
G1 X18.982 Y124.269 E28.28404
G1 X18.974 Y123.867 E28.29741
G1 X18.972 Y123.656 E28.30443
G1 X18.973 Y96.59 E29.20465
G1 X18.977 Y96.279 E29.21499
G1 X18.979 Y95.924 E29.2268
G1 X19.023 Y95.004 E29.25743
G1 X19.147 Y94.092 E29.28805
G1 X19.349 Y93.194 E29.31866
G1 X19.629 Y92.317 E29.34928
G1 X19.983 Y91.467 E29.3799
G1 X20.372 Y90.719 E29.40795
G1 X20.538 Y90.428 E29.41909
G1 X21.028 Y89.649 E29.4497
G1 X21.584 Y88.915 E29.48032
G1 X22.202 Y88.232 E29.51096
G1 X22.877 Y87.606 E29.54158
G1 X23.603 Y87.04 E29.5722
G1 X24.376 Y86.54 E29.60282
G1 X25.19 Y86.109 E29.63345
G1 X25.808 Y85.838 E29.65589
G1 X26.048 Y85.742 E29.66449
G1 X26.917 Y85.438 E29.69511
G0 F6000 X27.049 Y85.816
G1 F1200 X27.925 Y85.594 E29.72517
G1 X28.817 Y85.451 E29.75522
G1 X29.831 Y85.385 E29.78901
G1 X30.56 Y85.374 E29.81326
G1 X94.965 Y85.372 E31.95538
G1 X160.233 Y85.373 E34.1262
G1 X189.451 Y85.374 E35.098
G1 X190.16 Y85.385 E35.12158
G1 X191.062 Y85.439 E35.15164
G1 X191.955 Y85.573 E35.18167
G1 X192.833 Y85.785 E35.21171
G1 X193.479 Y85.995 E35.23431
G1 X193.73 Y86.086 E35.24319
G1 X194.564 Y86.431 E35.2732
G1 X195.365 Y86.848 E35.30324
G1 X196.126 Y87.335 E35.33329
G1 X196.84 Y87.887 E35.36331
G1 X197.503 Y88.501 E35.39336
G1 X198.047 Y89.095 E35.42015
G1 X198.177 Y89.249 E35.42686
G1 X198.729 Y89.965 E35.45693
G1 X199.215 Y90.726 E35.48696
G1 X199.631 Y91.527 E35.51698
G1 X200.06 Y92.603 E35.55551
G1 X200.097 Y92.714 E35.5594
G1 X200.344 Y93.583 E35.58944
G1 X200.514 Y94.47 E35.61948
G1 X200.618 Y95.73 E35.66153
G1 X200.626 Y96.119 E35.67447
G1 X200.628 Y96.329 E35.68146
G1 X200.627 Y123.397 E36.58174
G1 X200.623 Y123.734 E36.59295
G1 X200.621 Y124.074 E36.60426
G1 X200.577 Y124.976 E36.6343
G1 X200.453 Y125.871 E36.66435
G1 X200.251 Y126.751 E36.69438
G1 X199.972 Y127.61 E36.72442
G1 X199.618 Y128.441 E36.75446
G1 X199.281 Y129.083 E36.77858
G1 X199.115 Y129.374 E36.78972
G1 X198.633 Y130.138 E36.81977
G1 X198.086 Y130.856 E36.84979
G1 X197.477 Y131.523 E36.87983
G1 X196.811 Y132.134 E36.90989
G1 X196.094 Y132.683 E36.93993
G1 X195.332 Y133.167 E36.96995
G1 X194.529 Y133.581 E37
G1 X194.043 Y133.79 E37.01759
G1 X193.803 Y133.886 E37.02619
G1 X192.951 Y134.184 E37.05621
G1 X192.075 Y134.406 E37.08627
G1 X191.183 Y134.549 E37.11632
G1 X190.169 Y134.615 E37.15011
G1 X189.44 Y134.626 E37.17436
G1 X125.035 Y134.628 E39.31648
G1 X59.767 Y134.627 E41.48731
G1 X30.549 Y134.626 E42.4591
G1 X29.84 Y134.615 E42.48268
G1 X28.938 Y134.561 E42.51274
G1 X28.045 Y134.427 E42.54277
G1 X27.167 Y134.215 E42.57281
G1 X26.521 Y134.005 E42.59541
G1 X26.27 Y133.914 E42.60429
G1 X25.436 Y133.569 E42.63431
G1 X24.635 Y133.152 E42.66434
G1 X23.874 Y132.665 E42.69439
G1 X23.16 Y132.113 E42.72441
G1 X22.497 Y131.499 E42.75446
G1 X21.932 Y130.88 E42.78234
G1 X21.802 Y130.725 E42.78907
G1 X21.253 Y130.008 E42.8191
G1 X20.769 Y129.245 E42.84915
G1 X20.355 Y128.442 E42.8792
G1 X19.932 Y127.37 E42.91753
G1 X19.895 Y127.258 E42.92146
G1 X19.65 Y126.388 E42.95152
G1 X19.483 Y125.501 E42.98154
G1 X19.382 Y124.261 E43.02292
G1 X19.374 Y123.859 E43.03629
G1 X19.372 Y123.656 E43.04304
G1 X19.373 Y96.59 E43.94326
G1 X19.377 Y96.291 E43.95321
G1 X19.379 Y95.926 E43.96535
G1 X19.423 Y95.024 E43.99538
G1 X19.547 Y94.129 E44.02544
G1 X19.749 Y93.249 E44.05547
G1 X20.028 Y92.39 E44.08551
G1 X20.382 Y91.559 E44.11555
G1 X20.719 Y90.917 E44.13966
G1 X20.885 Y90.626 E44.15081
G1 X21.367 Y89.862 E44.18085
G1 X21.914 Y89.144 E44.21087
G1 X22.523 Y88.477 E44.24091
G1 X23.189 Y87.866 E44.27098
G1 X23.906 Y87.317 E44.30101
G1 X24.668 Y86.833 E44.33103
G1 X25.471 Y86.419 E44.36108
G1 X25.957 Y86.21 E44.37868
G1 X26.197 Y86.114 E44.38728
G1 X27.049 Y85.816 E44.4173
G1 F1500 E37.9173
;MESH:ad3df83b-95aa-4c04-b028-9785407f48c7.stl
G0 F6000 X29.724 Y94.946
G0 X29.991 Y96.002
G0 X30.4 Y123.6
;TYPE:WALL-INNER
G1 F1500 E44.4173
G1 F1200 X59.767 Y123.6 E45.39405
G1 X125.035 Y123.6 E47.56487
G1 X189.6 Y123.6 E49.71231
G1 X189.6 Y96.4 E50.61699
G1 X160.233 Y96.4 E51.59374
G1 X94.965 Y96.4 E53.76456
G1 X30.4 Y96.4 E55.912
G1 X30.4 Y123.6 E56.81668
G0 F6000 X30.8 Y123.2
;TYPE:WALL-OUTER
G1 F1200 X189.2 Y123.2 E62.08508
G1 X189.2 Y96.8 E62.96315
G1 X30.8 Y96.8 E68.23155
G1 X30.8 Y123.2 E69.10962
G1 F1500 E62.60962
G0 F6000 X30.5 Y123.2
G0 X30.564 Y123.405
G0 X125.035 Y123.828
;TYPE:WALL-INNER
G1 F1500 E69.10962
G1 F1200 X59.767 Y123.827 E70.34737
G1 X30.4 Y123.827 E70.90307
G1 X30.171 Y123.827 E70.90949
G1 X30.171 Y123.6 E70.91385
G1 X30.172 Y96.4 E71.43194
G1 X30.173 Y96.173 E71.43831
G1 X30.399 Y96.173 E71.44583
G1 X94.965 Y96.172 E72.67027
G1 X160.233 Y96.173 E73.90802
G1 X189.6 Y96.173 E74.46372
G1 X189.829 Y96.173 E74.47015
G1 X189.829 Y96.4 E74.4745
G1 X189.828 Y123.6 E74.9926
G1 X189.827 Y123.827 E74.99897
G1 X189.601 Y123.827 E75.00648
G1 X125.035 Y123.828 E76.23093
G0 F6000 X125.035 Y124.228
;TYPE:WALL-OUTER
G1 F1200 X59.767 Y124.227 E78.40175
G1 X30.01 Y124.227 E79.39147
G1 X29.961 Y124.222 E79.39311
G1 X29.922 Y124.213 E79.39444
G1 X29.872 Y124.186 E79.39633
G1 X29.801 Y124.115 E79.39967
G1 X29.771 Y124.035 E79.40251
G1 X29.773 Y95.993 E80.33519
G1 X29.771 Y95.963 E80.33619
G1 X29.799 Y95.887 E80.33889
G1 X29.876 Y95.811 E80.34249
G1 X29.92 Y95.787 E80.34415
G1 X29.964 Y95.776 E80.34566
G1 X30.005 Y95.773 E80.34703
G1 X94.965 Y95.772 E82.50761
G1 X160.233 Y95.773 E84.67843
G1 X189.99 Y95.773 E85.66815
G1 X190.039 Y95.778 E85.66979
G1 X190.078 Y95.787 E85.67112
G1 X190.128 Y95.814 E85.67301
G1 X190.199 Y95.885 E85.67635
G1 X190.229 Y95.965 E85.67919
G1 X190.227 Y124.007 E86.61187
G1 X190.229 Y124.037 E86.61287
G1 X190.201 Y124.113 E86.61557
G1 X190.124 Y124.189 E86.61917
G1 X190.08 Y124.213 E86.62083
G1 X190.036 Y124.224 E86.62234
G1 X189.995 Y124.227 E86.62371
G1 X125.035 Y124.228 E88.78429
G0 F6000 X125.035 Y123.788
G0 X125.036 Y123.8
G1 F1500 E82.28429
;MESH:NONMESH
G0 F300 X125.036 Y123.8 Z0.4
G0 F6000 X30.4 Y123.6
;TIME_ELAPSED:151.039685
;LAYER:1
M106 S85
;TYPE:WALL-INNER
;MESH:ad3df83b-95aa-4c04-b028-9785407f48c7.stl
G1 F1500 E88.78429
G1 F1350 X189.6 Y123.6 E94.0793
G1 X189.6 Y96.4 E94.98398
G1 X30.4 Y96.4 E100.27899
G1 X30.4 Y123.6 E101.18366
G0 F7500 X30.8 Y123.2
;TYPE:WALL-OUTER
G1 F1350 X189.2 Y123.2 E106.45207
G1 X189.2 Y96.8 E107.33014
G1 X30.8 Y96.8 E112.59854
G1 X30.8 Y123.2 E113.47661
G1 F1500 E106.97661
G0 F7500 X30.5 Y123.2
G0 X30.564 Y123.405
G0 X125.021 Y123.79
G0 X125.019 Y123.919
G0 X125.021 Y124.11
;TYPE:WALL-INNER
G1 F1500 E113.47661
G1 F1350 X59.767 Y124.109 E115.64697
G1 X30.129 Y124.109 E116.63273
G1 X30.021 Y124.109 E116.63632
G1 X29.988 Y124.107 E116.63742
G1 X29.958 Y124.101 E116.63844
G1 X29.946 Y124.095 E116.63889
G1 X29.925 Y124.077 E116.63981
G1 X29.913 Y124.064 E116.6404
G1 X29.902 Y124.042 E116.64121
G1 X29.892 Y124.007 E116.64242
G1 X29.89 Y123.98 E116.64332
G1 X29.89 Y123.872 E116.64692
G1 X29.891 Y96.011 E117.57358
G1 X29.893 Y95.988 E117.57435
G1 X29.9 Y95.96 E117.57531
G1 X29.911 Y95.941 E117.57604
G1 X29.942 Y95.908 E117.57754
G1 X29.971 Y95.895 E117.5786
G1 X30.028 Y95.891 E117.5805
G1 X94.979 Y95.89 E119.74078
G1 X160.233 Y95.891 E121.91113
G1 X189.871 Y95.891 E122.8969
G1 X189.979 Y95.891 E122.90049
G1 X190.012 Y95.893 E122.90159
G1 X190.042 Y95.899 E122.90261
G1 X190.059 Y95.908 E122.90325
G1 X190.089 Y95.939 E122.90468
G1 X190.098 Y95.958 E122.90538
G1 X190.108 Y95.993 E122.90659
G1 X190.11 Y96.02 E122.90749
G1 X190.11 Y96.128 E122.91109
G1 X190.109 Y123.989 E123.83775
G1 X190.107 Y124.012 E123.83851
G1 X190.099 Y124.041 E123.83951
G1 X190.09 Y124.058 E123.84015
G1 X190.058 Y124.092 E123.84171
G1 X190.029 Y124.105 E123.84276
G1 X189.972 Y124.109 E123.84466
G1 X125.021 Y124.11 E126.00494
G0 F7500 X125.021 Y124.51
;TYPE:WALL-OUTER
G1 F1350 X59.767 Y124.509 E128.1753
G1 X30.012 Y124.509 E129.16496
G1 X29.948 Y124.505 E129.16709
G1 X29.883 Y124.496 E129.16927
G1 X29.807 Y124.472 E129.17192
G1 X29.743 Y124.441 E129.17429
G1 X29.681 Y124.397 E129.17682
G1 X29.64 Y124.357 E129.17872
G1 X29.584 Y124.297 E129.18145
G1 X29.527 Y124.192 E129.18542
G1 X29.496 Y124.074 E129.18948
G1 X29.49 Y124 E129.19195
G1 X29.491 Y96.011 E130.12287
G1 X29.496 Y95.923 E130.1258
G1 X29.528 Y95.808 E130.12977
G1 X29.582 Y95.706 E130.13361
G1 X29.682 Y95.602 E130.13841
G1 X29.741 Y95.561 E130.1408
G1 X29.81 Y95.527 E130.14336
G1 X29.885 Y95.504 E130.14597
G1 X29.947 Y95.494 E130.14805
G1 X30.009 Y95.491 E130.15012
G1 X94.979 Y95.49 E132.31103
G1 X160.233 Y95.491 E134.48139
G1 X189.988 Y95.491 E135.47104
G1 X190.052 Y95.495 E135.47317
G1 X190.117 Y95.504 E135.47536
G1 X190.193 Y95.528 E135.47801
G1 X190.257 Y95.559 E135.48037
G1 X190.319 Y95.603 E135.4829
G1 X190.355 Y95.638 E135.48457
G1 X190.416 Y95.703 E135.48754
G1 X190.473 Y95.808 E135.49151
G1 X190.504 Y95.926 E135.49557
G1 X190.51 Y96 E135.49804
G1 X190.509 Y123.989 E136.42896
G1 X190.504 Y124.077 E136.43189
G1 X190.472 Y124.192 E136.43586
G1 X190.42 Y124.292 E136.43961
G1 X190.318 Y124.398 E136.4445
G1 X190.259 Y124.439 E136.44689
G1 X190.19 Y124.473 E136.44945
G1 X190.115 Y124.496 E136.45206
G1 X190.053 Y124.506 E136.45415
G1 X189.991 Y124.509 E136.45621
G1 X125.021 Y124.51 E138.61712
G0 F7500 X125.021 Y124.07
G1 F1500 E132.11712
G0 F7500 X189.63 Y123.9
G0 X189.63 Y123.79
G0 X189.63 Y123.71
G0 X189.63 Y123.759
;TYPE:SKIN
G1 F1500 E138.61712
G1 F1350 X189.44 Y123.949 E138.62606
G0 F7500 X189.064 Y123.759
G1 F1350 X188.874 Y123.949 E138.63499
G0 F7500 X188.499 Y123.759
G1 F1350 X188.308 Y123.949 E138.64396
G0 F7500 X187.933 Y123.759
G1 F1350 X187.743 Y123.949 E138.65289
G0 F7500 X187.367 Y123.759
G1 F1350 X187.177 Y123.949 E138.66183
G0 F7500 X186.802 Y123.759
G1 F1350 X186.611 Y123.949 E138.67079
G0 F7500 X186.236 Y123.759
G1 F1350 X186.046 Y123.949 E138.67973
G0 F7500 X185.67 Y123.759
G1 F1350 X185.48 Y123.949 E138.68866
G0 F7500 X185.104 Y123.759
G1 F1350 X184.914 Y123.949 E138.6976
G0 F7500 X184.539 Y123.759
